static/hero.svg

<svg fill="none" height="421" viewBox="0 0 2002 421" width="2002" xmlns="http://www.w3.org/2000/svg"><path d="m2002 421v-339h-302c-49.45 0-91.48 31.763-106.8 76h-153.2c-.17 0-.33 0-.5 0-135.03 0-244.5 109.466-244.5 244.5 0 6.224.23 12.393.69 18.5z" fill="#299848"/><path d="m0 421v-339h66c62.408 0 113 50.592 113 113h452v.002c124.356.539 225 101.515 225 225.998z" fill="#299848"/><path d="m407.44 10.341c.296-.2051.688-.2051.984 0l10.335 7.1599c.696.4825.355 1.5749-.492 1.5749h-20.669c-.847 0-1.189-1.0924-.492-1.5749z" fill="#c4c4c4"/><path clip-rule="evenodd" d="m508.198 65.3197c-12.716.0213-40.944.7866-57.048 13.6372h57.048v.192h57.048c-15.93-13.0293-43.85-13.8073-56.434-13.8292v-.0005c-.103 0-.207 0-.312.0001-.102-.0001-.202-.0001-.302-.0001z" fill="#c4c4c4" fill-rule="evenodd"/><path clip-rule="evenodd" d="m306.802 65.3197c-12.717.0213-40.944.7866-57.048 13.6372h57.048v.192h57.048c-15.93-13.0293-43.85-13.8073-56.435-13.8292v-.0005c-.103 0-.207 0-.312.0001-.101-.0001-.202-.0001-.301-.0001z" fill="#c4c4c4" fill-rule="evenodd"/><path d="m290.676 61.4295h231.217v17.2872h-231.217z" fill="#d25840"/><path d="m249.754 85.6317h315.492v109.342h-315.492z" fill="#d25840"/><rect fill="#c4c4c4" height="6.91489" rx="3.45745" width="324.568" x="245.432" y="96.4362"/><rect fill="#c4c4c4" height="6.91489" rx="3.45745" width="324.568" x="245" y="174.661"/><path clip-rule="evenodd" d="m373 26.3805c0-.8769.374-1.7187 1.068-2.2541 9.642-7.4336 25.235-8.0815 32.931-8.1238 0 0 .001-.0006.001-.0013 0-.0007.001-.0013.001-.0013.162 0 .328.0002.499.0006.171-.0004.337-.0006.499-.0006 0 0 .001.0006.001.0013 0 .0007.001.0013.001.0013 7.696.0423 23.289.6902 32.931 8.1238.694.5354 1.068 1.3772 1.068 2.2541v9.5942c0 1.6708-1.354 3.0253-3.025 3.0253h-62.95c-1.671 0-3.025-1.3545-3.025-3.0253z" fill="#69cb84" fill-rule="evenodd"/><path clip-rule="evenodd" d="m407.5 27.7205c-17.919.0481-57.694 1.77-80.386 30.6838h80.386v.4321h80.386c-22.447-29.3159-61.789-31.0665-79.522-31.1158v-.0012c-.144 0-.289.0001-.436.0003-.144-.0002-.287-.0003-.428-.0003z" fill="#c4c4c4" fill-rule="evenodd"/><rect fill="#c4c4c4" height="6.91489" rx="3.45745" width="242.453" x="286.057" y="54.5146"/><g fill="#000" fill-opacity=".15"><path d="m260 110h19.8803v18.5838h-19.8803z"/><path d="m534.867 110h19.8803v18.5838h-19.8803z"/><path d="m502.886 110h19.8803v18.5838h-19.8803z"/><path d="m291.549 110h19.8803v18.5838h-19.8803z"/><path d="m344.275 110h16.4229v18.5838h-16.4229z"/><path d="m344.402 144.408c0-4.535 3.676-8.211 8.211-8.211 4.535 0 8.211 3.676 8.211 8.211v28.524h-16.422z"/><path d="m399.289 144.408c0-4.535 3.676-8.211 8.211-8.211 4.535 0 8.211 3.676 8.211 8.211v28.524h-16.422z"/><path d="m453.743 144.408c0-4.535 3.677-8.211 8.212-8.211 4.535 0 8.211 3.676 8.211 8.211v28.524h-16.423z"/><path d="m399.162 110h16.4229v18.5838h-16.4229z"/><path d="m453.617 110h16.4229v18.5838h-16.4229z"/><path d="m260.126 136.197h19.8803v33.7101h-19.8803z"/><path d="m534.993 136.197h19.8803v33.7101h-19.8803z"/></g><path clip-rule="evenodd" d="m291.676 82.1742c0-1.6708 1.354-3.0253 3.025-3.0253h225.166c1.671 0 3.025 1.3545 3.025 3.0253v18.1518c0 1.671-1.354 3.025-3.025 3.025h-31.981v69.649h.754l13.19 10.305h9.826c1.67 0 3.025 1.354 3.025 3.025v8.643h2.161c1.67 0 3.025 1.355 3.025 3.026v.864c0 1.671-1.355 3.025-3.025 3.025h-219.116c-1.671 0-3.025-1.354-3.025-3.025v-.864c0-1.671 1.354-3.026 3.025-3.026h2.161v-8.643c0-1.671 1.354-3.025 3.025-3.025h10.23l13.021-10.305h.951v-69.649h-32.413c-1.671 0-3.025-1.354-3.025-3.025zm185.27 90.8258v-69.649h-29.015v69.649zm-39.955 0h-4.281v-69.649h4.281zm-15.221 0v-69.649h-29.015v69.649zm-39.955 0h-3.806v-69.649h3.806zm-14.746 0v-69.649h-29.015v69.649z" fill="#e0e0e0" fill-rule="evenodd"/><path d="m503.012 136.197h19.8803v33.7101h-19.8803z" fill="#000" fill-opacity=".15"/><path d="m291.676 136.197h19.8803v33.7101h-19.8803z" fill="#000" fill-opacity=".15"/><rect fill="#c4c4c4" height="6.91489" rx="3.45745" width="324.568" x="245" y="78.7168"/><rect fill="#69cb84" height="36" rx="18" transform="matrix(0 1 -1 0 762 -498)" width="58" x="630" y="132"/><rect fill="#69cb84" height="36" rx="18" transform="matrix(0 1 -1 0 861 -571)" width="58" x="716" y="145"/><rect fill="#69cb84" height="36" rx="18" transform="matrix(0 1 -1 0 1470 -1132)" width="58" x="1301" y="169"/><rect fill="#69cb84" height="36" rx="18" transform="matrix(0 1 -1 0 258 -100)" width="58" x="179" y="79"/><rect fill="#69cb84" height="36" rx="18" transform="matrix(0 1 -1 0 157 -99)" width="58" x="128" y="29"/><path d="m611.5 214v-35.5" stroke="#fff" stroke-width="2"/><path d="m697.5 227v-35.5" stroke="#fff" stroke-width="2"/><path d="m1282.5 251.5v-35.5" stroke="#fff" stroke-width="2"/><path d="m160.5 161v-35.5" stroke="#fff" stroke-width="2"/><path d="m109.5 111v-35.5" stroke="#fff" stroke-width="2"/><path clip-rule="evenodd" d="m1368.08 168.93c6.82-.491 12.2-6.18 12.2-13.127 0-7.268-5.89-13.161-13.16-13.161-6.77 0-12.34 5.109-13.08 11.68h-.08v16.909h-4.88v14.119h11.94.43v-.013c3.7-.225 6.63-3.294 6.63-7.047 0-.146-.01-.291-.02-.435h.02z" fill="#654f39" fill-rule="evenodd"/><path clip-rule="evenodd" d="m1354 157.628v9.238.1c3.16 2.908 5.14 7.075 5.14 11.703 0 8.787-7.13 15.91-15.91 15.91-8.79 0-15.91-7.123-15.91-15.91 0-4.056 1.51-7.758 4.01-10.568-2.96-2.523-4.83-6.279-4.83-10.473 0-7.596 6.15-13.754 13.75-13.754 2.81 0 5.42.841 7.59 2.286v-2.081c0-1.7 1.38-3.079 3.08-3.079s3.08 1.379 3.08 3.079z" fill="#9f8051" fill-rule="evenodd"/><path clip-rule="evenodd" d="m1326.9 154.304c.87-.214 1.99-.305 2.54.256.69.695-1.47 2.198-2.94 3.044 0-1.138.14-2.243.4-3.3z" fill="#041633" fill-opacity=".95" fill-rule="evenodd"/><path d="m1359.75 184.007c0-5.839-4.73-10.572-10.57-10.572-5.84 0-10.57 4.733-10.57 10.572v7.416c0 1.743 1.41 3.156 3.15 3.156h7.42c5.84 0 10.57-4.733 10.57-10.572z" fill="#826941"/><path d="m1349.08 188.42h-14.58c-1.7 0-3.08 1.379-3.08 3.08 0 1.7 1.38 3.079 3.08 3.079h14.58z" fill="#826941"/><path d="m1337.66 170.685c-1.2-1.202-3.15-1.202-4.35 0l-8.13 8.129c-1.21 1.203-1.21 3.152 0 4.355 1.2 1.202 3.15 1.202 4.35 0l8.13-8.129c1.2-1.202 1.2-3.152 0-4.355z" fill="#826941"/><circle fill="#041633" fill-opacity=".95" r="1.84755" transform="matrix(-1 0 0 1 1335.73 154.138)"/><rect fill="#69cb84" height="36" rx="18" transform="matrix(0 1 -1 0 1816 -1788)" width="58" x="1802" y="14"/><path d="m1783.5 96.5v-35.5" stroke="#fff" stroke-width="2"/><rect fill="#69cb84" height="36" rx="18" transform="matrix(0 1 -1 0 1701 -1605)" width="58" x="1653" y="48"/><path d="m1634.5 130.5v-35.5" stroke="#fff" stroke-width="2"/><rect fill="#69cb84" height="36" rx="18" transform="matrix(0 1 -1 0 1893 -1865)" width="58" x="1879" y="14"/><path d="m1860.5 96.5v-35.5" stroke="#fff" stroke-width="2"/></svg>

<svg width="2002" height="421" viewBox="0 0 2002 421" fill="none" xmlns="http://www.w3.org/2000/svg">
<path d="M2002 421V82H1700C1650.55 82 1608.52 113.763 1593.2 158H1440C1439.83 158 1439.67 158 1439.5 158C1304.47 158 1195 267.466 1195 402.5C1195 408.724 1195.23 414.893 1195.69 421H2002Z" fill="#299848"/>
<path d="M0 421V82H66C128.408 82 179 132.592 179 195H631V195.002C755.356 195.541 856 296.517 856 421H0Z" fill="#299848"/>
<path d="M407.44 10.341C407.736 10.1359 408.128 10.1359 408.424 10.341L418.759 17.5009C419.455 17.9834 419.114 19.0758 418.267 19.0758H397.598C396.751 19.0758 396.409 17.9834 397.106 17.5009L407.44 10.341Z" fill="#C4C4C4"/>
<path fill-rule="evenodd" clip-rule="evenodd" d="M508.198 65.3197C495.482 65.341 467.254 66.1063 451.15 78.9569H508.198V79.1489H565.246C549.316 66.1196 521.396 65.3416 508.812 65.3197V65.3192C508.709 65.3192 508.605 65.3192 508.5 65.3193C508.398 65.3192 508.298 65.3192 508.198 65.3192V65.3197Z" fill="#C4C4C4"/>
<path fill-rule="evenodd" clip-rule="evenodd" d="M306.802 65.3197C294.085 65.341 265.858 66.1063 249.754 78.9569H306.802V79.1489H363.85C347.92 66.1196 320 65.3416 307.415 65.3197V65.3192C307.312 65.3192 307.208 65.3192 307.103 65.3193C307.002 65.3192 306.901 65.3192 306.802 65.3192V65.3197Z" fill="#C4C4C4"/>
<rect x="290.676" y="61.4295" width="231.217" height="17.2872" fill="#D25840"/>
<rect x="249.754" y="85.6317" width="315.492" height="109.342" fill="#D25840"/>
<rect x="245.432" y="96.4362" width="324.568" height="6.91489" rx="3.45745" fill="#C4C4C4"/>
<rect x="245" y="174.661" width="324.568" height="6.91489" rx="3.45745" fill="#C4C4C4"/>
<path fill-rule="evenodd" clip-rule="evenodd" d="M373 26.3805C373 25.5036 373.374 24.6618 374.068 24.1264C383.71 16.6928 399.303 16.0449 406.999 16.0026C406.999 16.0026 407 16.002 407 16.0013V16.0013C407 16.0006 407.001 16 407.001 16C407.163 16 407.329 16.0002 407.5 16.0006C407.671 16.0002 407.837 16 407.999 16C407.999 16 408 16.0006 408 16.0013V16.0013C408 16.002 408.001 16.0026 408.001 16.0026C415.697 16.0449 431.29 16.6928 440.932 24.1264C441.626 24.6618 442 25.5036 442 26.3805L442 35.9747C442 37.6455 440.646 39 438.975 39H376.025C374.354 39 373 37.6455 373 35.9747L373 26.3805Z" fill="#69CB84"/>
<path fill-rule="evenodd" clip-rule="evenodd" d="M407.5 27.7205C389.581 27.7686 349.806 29.4905 327.114 58.4043H407.5V58.8364H487.886C465.439 29.5205 426.097 27.7699 408.364 27.7206V27.7194C408.22 27.7194 408.075 27.7195 407.928 27.7197C407.784 27.7195 407.641 27.7194 407.5 27.7194V27.7205Z" fill="#C4C4C4"/>
<rect x="286.057" y="54.5146" width="242.453" height="6.91489" rx="3.45745" fill="#C4C4C4"/>
<rect x="260" y="110" width="19.8803" height="18.5838" fill="black" fill-opacity="0.15"/>
<rect x="534.867" y="110" width="19.8803" height="18.5838" fill="black" fill-opacity="0.15"/>
<rect x="502.886" y="110" width="19.8803" height="18.5838" fill="black" fill-opacity="0.15"/>
<rect x="291.549" y="110" width="19.8803" height="18.5838" fill="black" fill-opacity="0.15"/>
<rect x="344.275" y="110" width="16.4229" height="18.5838" fill="black" fill-opacity="0.15"/>
<path d="M344.402 144.408C344.402 139.873 348.078 136.197 352.613 136.197V136.197C357.148 136.197 360.824 139.873 360.824 144.408V172.932H344.402V144.408Z" fill="black" fill-opacity="0.15"/>
<path d="M399.289 144.408C399.289 139.873 402.965 136.197 407.5 136.197V136.197C412.035 136.197 415.711 139.873 415.711 144.408V172.932H399.289V144.408Z" fill="black" fill-opacity="0.15"/>
<path d="M453.743 144.408C453.743 139.873 457.42 136.197 461.955 136.197V136.197C466.49 136.197 470.166 139.873 470.166 144.408V172.932H453.743V144.408Z" fill="black" fill-opacity="0.15"/>
<rect x="399.162" y="110" width="16.4229" height="18.5838" fill="black" fill-opacity="0.15"/>
<rect x="453.617" y="110" width="16.4229" height="18.5838" fill="black" fill-opacity="0.15"/>
<rect x="260.126" y="136.197" width="19.8803" height="33.7101" fill="black" fill-opacity="0.15"/>
<rect x="534.993" y="136.197" width="19.8803" height="33.7101" fill="black" fill-opacity="0.15"/>
<path fill-rule="evenodd" clip-rule="evenodd" d="M291.676 82.1742C291.676 80.5034 293.03 79.1489 294.701 79.1489H519.867C521.538 79.1489 522.892 80.5034 522.892 82.1742V100.326C522.892 101.997 521.538 103.351 519.867 103.351H487.886V173H488.64L501.83 183.305H511.656C513.326 183.305 514.681 184.659 514.681 186.33V194.973H516.842C518.512 194.973 519.867 196.328 519.867 197.999V198.863C519.867 200.534 518.512 201.888 516.842 201.888H297.726C296.055 201.888 294.701 200.534 294.701 198.863V197.999C294.701 196.328 296.055 194.973 297.726 194.973H299.887V186.33C299.887 184.659 301.241 183.305 302.912 183.305H313.142L326.163 173H327.114V103.351H294.701C293.03 103.351 291.676 101.997 291.676 100.326V82.1742ZM476.946 173V103.351H447.931V173H476.946ZM436.991 173H432.71V103.351H436.991V173ZM421.77 173V103.351H392.755V173H421.77ZM381.815 173H378.009V103.351H381.815V173ZM367.069 173V103.351H338.054V173H367.069Z" fill="#E0E0E0"/>
<rect x="503.012" y="136.197" width="19.8803" height="33.7101" fill="black" fill-opacity="0.15"/>
<rect x="291.676" y="136.197" width="19.8803" height="33.7101" fill="black" fill-opacity="0.15"/>
<rect x="245" y="78.7168" width="324.568" height="6.91489" rx="3.45745" fill="#C4C4C4"/>
<rect x="630" y="132" width="58" height="36" rx="18" transform="rotate(90 630 132)" fill="#69CB84"/>
<rect x="716" y="145" width="58" height="36" rx="18" transform="rotate(90 716 145)" fill="#69CB84"/>
<rect x="1301" y="169" width="58" height="36" rx="18" transform="rotate(90 1301 169)" fill="#69CB84"/>
<rect x="179" y="79" width="58" height="36" rx="18" transform="rotate(90 179 79)" fill="#69CB84"/>
<rect x="128" y="29" width="58" height="36" rx="18" transform="rotate(90 128 29)" fill="#69CB84"/>
<path d="M611.5 214V178.5" stroke="white" stroke-width="2"/>
<path d="M697.5 227V191.5" stroke="white" stroke-width="2"/>
<path d="M1282.5 251.5V216" stroke="white" stroke-width="2"/>
<path d="M160.5 161V125.5" stroke="white" stroke-width="2"/>
<path d="M109.5 111V75.5" stroke="white" stroke-width="2"/>
<path fill-rule="evenodd" clip-rule="evenodd" d="M1368.08 168.93C1374.9 168.439 1380.28 162.75 1380.28 155.803C1380.28 148.535 1374.39 142.642 1367.12 142.642C1360.35 142.642 1354.78 147.751 1354.04 154.322H1353.96V171.231H1349.08V185.35H1361.02H1361.45V185.337C1365.15 185.112 1368.08 182.043 1368.08 178.29C1368.08 178.144 1368.07 177.999 1368.06 177.855H1368.08V168.93Z" fill="#654F39"/>
<path fill-rule="evenodd" clip-rule="evenodd" d="M1354 157.628V166.866V166.966C1357.16 169.874 1359.14 174.041 1359.14 178.669C1359.14 187.456 1352.01 194.579 1343.23 194.579C1334.44 194.579 1327.32 187.456 1327.32 178.669C1327.32 174.613 1328.83 170.911 1331.33 168.101C1328.37 165.578 1326.5 161.822 1326.5 157.628C1326.5 150.032 1332.65 143.874 1340.25 143.874C1343.06 143.874 1345.67 144.715 1347.84 146.16V144.079C1347.84 142.379 1349.22 141 1350.92 141C1352.62 141 1354 142.379 1354 144.079L1354 157.628Z" fill="#9F8051"/>
<path fill-rule="evenodd" clip-rule="evenodd" d="M1326.9 154.304C1327.77 154.09 1328.89 153.999 1329.44 154.56C1330.13 155.255 1327.97 156.758 1326.5 157.604C1326.5 156.466 1326.64 155.361 1326.9 154.304Z" fill="#041633" fill-opacity="0.95"/>
<path d="M1359.75 184.007C1359.75 178.168 1355.02 173.435 1349.18 173.435V173.435C1343.34 173.435 1338.61 178.168 1338.61 184.007V191.423C1338.61 193.166 1340.02 194.579 1341.76 194.579H1349.18C1355.02 194.579 1359.75 189.846 1359.75 184.007V184.007Z" fill="#826941"/>
<path d="M1349.08 188.42H1334.5C1332.8 188.42 1331.42 189.799 1331.42 191.5V191.5C1331.42 193.2 1332.8 194.579 1334.5 194.579H1349.08V188.42Z" fill="#826941"/>
<path d="M1337.66 170.685C1336.46 169.483 1334.51 169.483 1333.31 170.685L1325.18 178.814C1323.97 180.017 1323.97 181.966 1325.18 183.169V183.169C1326.38 184.371 1328.33 184.371 1329.53 183.169L1337.66 175.04C1338.86 173.838 1338.86 171.888 1337.66 170.685V170.685Z" fill="#826941"/>
<circle r="1.84755" transform="matrix(-1 0 0 1 1335.73 154.138)" fill="#041633" fill-opacity="0.95"/>
<rect x="1802" y="14" width="58" height="36" rx="18" transform="rotate(90 1802 14)" fill="#69CB84"/>
<path d="M1783.5 96.5V61" stroke="white" stroke-width="2"/>
<rect x="1653" y="48" width="58" height="36" rx="18" transform="rotate(90 1653 48)" fill="#69CB84"/>
<path d="M1634.5 130.5V95" stroke="white" stroke-width="2"/>
<rect x="1879" y="14" width="58" height="36" rx="18" transform="rotate(90 1879 14)" fill="#69CB84"/>
<path d="M1860.5 96.5V61" stroke="white" stroke-width="2"/>
</svg>
